X:160
T:Jack Ryan's
R:polka
Z:id:hn-polka-160
M:2/4
L:1/8
K:G
DG GA | Bc/B/ AG | EA A/B/A/G/ | EA AG/E/ |
DG GA | Bc/B/ AB | de/d/ cF |1 AG GE :|2 AG G>A ||
|: Bd dc | Bc/B/ AG | EA A/B/A/G/ | EA AG/A/ |
Bd dc | Bc/B/ AB | de/d/ cF |1 AG G>A :|2 AG GE ||  

